public/svgs/main-description.svg

<svg xmlns="http://www.w3.org/2000/svg" fill="none" viewBox="0 0 650 27"><path fill="#222" d="M.785 25.028 8.165 1.16h7.92l7.38 23.868-.648.972h-4.32l-1.512-5.04h-9.72L5.753 26h-4.32zm7.884-8.748h6.912L12.413 5.84h-.576zM35.714 26V1.16H47.81q6.048 0 6.048 6.048v4.824q0 6.048-6.048 6.048h-6.912V26zm5.184-12.6h6.696q1.08 0 1.08-1.08v-5.4q0-1.08-1.08-1.08h-6.696zm17.557 6.552V1.16h5.184v19.08q0 1.08 1.08 1.08h7.056q1.08 0 1.08-1.08V1.16h5.184v18.792Q78.039 26 71.99 26h-7.488q-6.048 0-6.048-6.048M83.737 26V1.16h12.096q6.048 0 6.048 6.048v4.104q0 4.5-3.348 5.616l4.068 7.992-.612 1.08h-4.464l-4.392-8.64h-4.212V26zm5.184-13.32h6.696q1.08 0 1.08-1.08V6.92q0-1.08-1.08-1.08h-6.696zM107.081 26V1.16h12.096q6.048 0 6.048 6.048v4.824q0 6.048-6.048 6.048h-6.912V26zm5.184-12.6h6.696q1.08 0 1.08-1.08v-5.4q0-1.08-1.08-1.08h-6.696zm17.413 6.552V7.208q0-6.048 6.048-6.048h8.208q6.048 0 6.048 6.048v12.744q0 6.048-6.048 6.048h-8.208q-6.048 0-6.048-6.048m5.184.288q0 1.08 1.08 1.08h7.776q1.08 0 1.08-1.08V6.92q0-1.08-1.08-1.08h-7.776q-1.08 0-1.08 1.08zm19.584 3.888V21.32h11.16q1.08 0 1.08-1.08v-2.592q0-1.044-.9-1.188l-7.02-1.44q-4.32-.864-4.32-5.796V7.208q0-6.048 6.048-6.048h8.244l2.412 1.872V5.84h-10.44q-1.08 0-1.08 1.08v2.34q0 1.008.9 1.188l7.02 1.404q4.32.864 4.32 5.796v2.304q0 6.048-6.048 6.048h-8.964zM176.69 26V1.16h16.992v4.68h-11.808v5.04h10.728v4.68h-10.728v5.76h11.808V26zm20.215-8.856v-4.248h10.8v4.248zM212.093 26V1.16h9.432q10.152 0 10.152 10.152v4.536Q231.677 26 221.525 26zm5.184-4.68h4.536q4.68 0 4.68-4.68v-6.12q0-4.68-4.68-4.68h-4.536zM236.878 26V1.16h12.096q6.048 0 6.048 6.048v4.104q0 4.5-3.348 5.616l4.068 7.992-.612 1.08h-4.464l-4.392-8.64h-4.212V26zm5.184-13.32h6.696q1.08 0 1.08-1.08V6.92q0-1.08-1.08-1.08h-6.696zM260.222 26V1.16h5.184V26zm8.77-23.868.648-.972h4.572l5.652 20.16h.576l5.688-20.16h4.536l.648.972L284.256 26h-8.208zM294.921 26V1.16h16.992v4.68h-11.808v5.04h10.728v4.68h-10.728v5.76h11.808V26zm21.726 0V1.16h5.616l9.864 16.308V1.16h5.184V26h-5.616l-9.864-16.308V26zm35.227 0V1.16h5.184v20.16h10.728V26zm19.363-6.048V7.208q0-6.048 6.048-6.048h8.208q6.048 0 6.048 6.048v12.744q0 6.048-6.048 6.048h-8.208q-6.048 0-6.048-6.048m5.184.288q0 1.08 1.08 1.08h7.776q1.08 0 1.08-1.08V6.92q0-1.08-1.08-1.08h-7.776q-1.08 0-1.08 1.08zM397.085 26V1.16h5.616l9.864 16.308V1.16h5.184V26h-5.616l-9.864-16.308V26zm26.218-6.048V7.208q0-6.048 6.048-6.048h10.404l2.412 1.872V5.84h-12.6q-1.08 0-1.08 1.08v13.32q0 1.08 1.08 1.08h8.136v-5.76h-4.752v-4.68h9.936V26h-13.536q-6.048 0-6.048-6.048M448.061 26V1.16h16.992v4.68h-11.808v5.04h10.728v4.68h-10.728v5.76h11.808V26zm19.423-23.868.648-.972h4.572l5.652 20.16h.576l5.688-20.16h4.536l.648.972L482.748 26h-8.208zM493.413 26V1.16h5.184V26zm8.986-20.16V1.16h20.304v4.68h-7.56V26h-5.184V5.84zm21.827-3.708.612-.972h4.428l5.4 10.548 5.4-10.548h4.428l.612.972-7.848 15.084V26h-5.184v-8.784zM557.362 26V1.16h16.992v4.68h-11.808v6.12h10.728v4.68h-10.728V26zm20.808-6.048V1.16h5.184v19.08q0 1.08 1.08 1.08h7.056q1.08 0 1.08-1.08V1.16h5.184v18.792q0 6.048-6.048 6.048h-7.488q-6.048 0-6.048-6.048M603.452 26V1.16h5.616l9.864 16.308V1.16h5.184V26H618.5l-9.864-16.308V26zm26.578 0V1.16h9.432q10.152 0 10.152 10.152v4.536Q649.614 26 639.462 26zm5.184-4.68h4.536q4.68 0 4.68-4.68v-6.12q0-4.68-4.68-4.68h-4.536z"/></svg>

<svg viewBox="0 0 650 27" fill="none" xmlns="http://www.w3.org/2000/svg">
    <path
        d="M0.784719 25.028L8.16472 1.16H16.0847L23.4647 25.028L22.8167 26H18.4967L16.9847 20.96H7.26472L5.75272 26H1.43272L0.784719 25.028ZM8.66872 16.28H15.5807L12.4127 5.84H11.8367L8.66872 16.28ZM35.7137 26V1.16H47.8097C51.8417 1.16 53.8577 3.176 53.8577 7.208V12.032C53.8577 16.064 51.8417 18.08 47.8097 18.08H40.8977V26H35.7137ZM40.8977 13.4H47.5937C48.3137 13.4 48.6737 13.04 48.6737 12.32V6.92C48.6737 6.2 48.3137 5.84 47.5937 5.84H40.8977V13.4ZM58.4548 19.952V1.16H63.6388V20.24C63.6388 20.96 63.9988 21.32 64.7188 21.32H71.7748C72.4948 21.32 72.8548 20.96 72.8548 20.24V1.16H78.0388V19.952C78.0388 23.984 76.0228 26 71.9908 26H64.5028C60.4708 26 58.4548 23.984 58.4548 19.952ZM83.7372 26V1.16H95.8332C99.8652 1.16 101.881 3.176 101.881 7.208V11.312C101.881 14.312 100.765 16.184 98.5332 16.928L102.601 24.92L101.989 26H97.5252L93.1332 17.36H88.9212V26H83.7372ZM88.9212 12.68H95.6172C96.3372 12.68 96.6972 12.32 96.6972 11.6V6.92C96.6972 6.2 96.3372 5.84 95.6172 5.84H88.9212V12.68ZM107.081 26V1.16H119.177C123.209 1.16 125.225 3.176 125.225 7.208V12.032C125.225 16.064 123.209 18.08 119.177 18.08H112.265V26H107.081ZM112.265 13.4H118.961C119.681 13.4 120.041 13.04 120.041 12.32V6.92C120.041 6.2 119.681 5.84 118.961 5.84H112.265V13.4ZM129.678 19.952V7.208C129.678 3.176 131.694 1.16 135.726 1.16H143.934C147.966 1.16 149.982 3.176 149.982 7.208V19.952C149.982 23.984 147.966 26 143.934 26H135.726C131.694 26 129.678 23.984 129.678 19.952ZM134.862 20.24C134.862 20.96 135.222 21.32 135.942 21.32H143.718C144.438 21.32 144.798 20.96 144.798 20.24V6.92C144.798 6.2 144.438 5.84 143.718 5.84H135.942C135.222 5.84 134.862 6.2 134.862 6.92V20.24ZM154.446 24.128V21.32H165.606C166.326 21.32 166.686 20.96 166.686 20.24V17.648C166.686 16.952 166.386 16.556 165.786 16.46L158.766 15.02C155.886 14.444 154.446 12.512 154.446 9.224V7.208C154.446 3.176 156.462 1.16 160.494 1.16H168.738L171.15 3.032V5.84H160.71C159.99 5.84 159.63 6.2 159.63 6.92V9.26C159.63 9.932 159.93 10.328 160.53 10.448L167.55 11.852C170.43 12.428 171.87 14.36 171.87 17.648V19.952C171.87 23.984 169.854 26 165.822 26H156.858L154.446 24.128ZM176.69 26V1.16H193.682V5.84H181.874V10.88H192.602V15.56H181.874V21.32H193.682V26H176.69ZM196.905 17.144V12.896H207.705V17.144H196.905ZM212.093 26V1.16H221.525C228.293 1.16 231.677 4.544 231.677 11.312V15.848C231.677 22.616 228.293 26 221.525 26H212.093ZM217.277 21.32H221.813C224.933 21.32 226.493 19.76 226.493 16.64V10.52C226.493 7.4 224.933 5.84 221.813 5.84H217.277V21.32ZM236.878 26V1.16H248.974C253.006 1.16 255.022 3.176 255.022 7.208V11.312C255.022 14.312 253.906 16.184 251.674 16.928L255.742 24.92L255.13 26H250.666L246.274 17.36H242.062V26H236.878ZM242.062 12.68H248.758C249.478 12.68 249.838 12.32 249.838 11.6V6.92C249.838 6.2 249.478 5.84 248.758 5.84H242.062V12.68ZM260.222 26V1.16H265.406V26H260.222ZM268.992 2.132L269.64 1.16H274.212L279.864 21.32H280.44L286.128 1.16H290.664L291.312 2.132L284.256 26H276.048L268.992 2.132ZM294.921 26V1.16H311.913V5.84H300.105V10.88H310.833V15.56H300.105V21.32H311.913V26H294.921ZM316.647 26V1.16H322.263L332.127 17.468V1.16H337.311V26H331.695L321.831 9.692V26H316.647ZM351.874 26V1.16H357.058V21.32H367.786V26H351.874ZM371.237 19.952V7.208C371.237 3.176 373.253 1.16 377.285 1.16H385.493C389.525 1.16 391.541 3.176 391.541 7.208V19.952C391.541 23.984 389.525 26 385.493 26H377.285C373.253 26 371.237 23.984 371.237 19.952ZM376.421 20.24C376.421 20.96 376.781 21.32 377.501 21.32H385.277C385.997 21.32 386.357 20.96 386.357 20.24V6.92C386.357 6.2 385.997 5.84 385.277 5.84H377.501C376.781 5.84 376.421 6.2 376.421 6.92V20.24ZM397.085 26V1.16H402.701L412.565 17.468V1.16H417.749V26H412.133L402.269 9.692V26H397.085ZM423.303 19.952V7.208C423.303 3.176 425.319 1.16 429.351 1.16H439.755L442.167 3.032V5.84H429.567C428.847 5.84 428.487 6.2 428.487 6.92V20.24C428.487 20.96 428.847 21.32 429.567 21.32H437.703V15.56H432.951V10.88H442.887V26H429.351C425.319 26 423.303 23.984 423.303 19.952ZM448.061 26V1.16H465.053V5.84H453.245V10.88H463.973V15.56H453.245V21.32H465.053V26H448.061ZM467.484 2.132L468.132 1.16H472.704L478.356 21.32H478.932L484.62 1.16H489.156L489.804 2.132L482.748 26H474.54L467.484 2.132ZM493.413 26V1.16H498.597V26H493.413ZM502.399 5.84V1.16H522.703V5.84H515.143V26H509.959V5.84H502.399ZM524.226 2.132L524.838 1.16H529.266L534.666 11.708L540.066 1.16H544.494L545.106 2.132L537.258 17.216V26H532.074V17.216L524.226 2.132ZM557.362 26V1.16H574.354V5.84H562.546V11.96H573.274V16.64H562.546V26H557.362ZM578.17 19.952V1.16H583.354V20.24C583.354 20.96 583.714 21.32 584.434 21.32H591.49C592.21 21.32 592.57 20.96 592.57 20.24V1.16H597.754V19.952C597.754 23.984 595.738 26 591.706 26H584.218C580.186 26 578.17 23.984 578.17 19.952ZM603.452 26V1.16H609.068L618.932 17.468V1.16H624.116V26H618.5L608.636 9.692V26H603.452ZM630.03 26V1.16H639.462C646.23 1.16 649.614 4.544 649.614 11.312V15.848C649.614 22.616 646.23 26 639.462 26H630.03ZM635.214 21.32H639.75C642.87 21.32 644.43 19.76 644.43 16.64V10.52C644.43 7.4 642.87 5.84 639.75 5.84H635.214V21.32Z"
        fill="#222222" />
</svg>
